!!!ONB: MCCC : ILB0323_03 : Extracted Monophonic Melody
!!!COM: Beethoven, Ludwig van
!!!OPR: Violin Sonata No.2 in A major
!!!OMV: 3
!!!SCT: Op.12 No.2
!!!ODT: 1797///
**kern
*staff1
*clefG2
*k[f#c#]
*D:
*M3/4
=9
4.a[
16a]
16dd
4ff#
=10
2ff#
4ee
=11
2dd
4cc#
=12
4dd
4ee
4r
=13
2.ee
=14
4ff
4ff#
4r
=15
2.a
=16
8cc#
8b
4a
4r
=17
4r
2cc#
=18
4ff#[
2ff#]
=19
4ee
2dd
=20
4cc#
4b
4r
=21
4r
4f#
4ff#[
=22
2ff#]
4ff#
=23
2gg
4ff#
=24
4ee
4dd
4r
=25
4.aa[
16aa]
16ddd
4fff#
=26
2fff#
4eee
=27
2ddd
4ccc#
=28
4ddd
4eee
4r
=29
2.eee
=30
4fff
4fff#
4r
=31
2.aa
=32
8ccc#
8bb
4aa
4r
=33
2.r
=34
4r
4r
8b
8dd
=35
4ee
4r
8a
8cc#
=36
4ee
4r
8g#
8b
=37
4ee
12e
12a
12cc#
12ee
12aa
12ccc#
=38
4eee
4eee
4ddd
=39
4bb
4ccc
4ccc#
=40
4aa
4aa#
4bb
=41
4ee
4r
4r
=42
2.r
=43
2.r
=44
2.r
=45
4r
12B
12e
12g#
12b
12ee
12gg#
=46
4bb
4bb
4aa
=47
4ff#
4gg
4gg#
=48
4ee
4ff
4ff#
=49
4b
4r
4r
=50
2.r
=51
4r
4ff#
4gg
=52
4ee
4ff
4ff#
=53
4b
4ff#
4gg
=54
4gg
2gg[
=55
4gg]
2aa
=56
4aa
2dd
=57
8.dd
32dd
32aa
4gg
4ff#
=58
4gg
2aa[
=59
4aa]
2ddd[
=60
4ddd]
4bb
4r
=61
4r
4d#
4e
=62
4e
2e[
=63
4e]
2f#
=64
4f#
2B
=65
8.B
32B
32f#
4e
4d#
=66
4e
2f#[
=67
4f#]
2b[
=68
4b]
2ee[
=69
4ee]
4dd#
4ee
=70
4cc#
4a#
4b
=71
4g#
4g#
4a
=72
4d#
4e
4r
=73
4r
12c#
12e
12g#
12cc#
12ee
12gg#
=74
4ccc#
2ccc#
=75
4aa
4aa
4gg#
=76
4a
4g#
4r
=77
4r
12c#
12e
12g#
12cc#
12ee
12gg#
=78
4ccc#
2ccc#
=79
4aa
4r
4r
=80
2.cc#
=81
4a
4r
4r
=82
2.c#
=83
4A
4r
4r
=84
2.r
=85
2.r
=86
2.r
=87
2.r
=88
2.r
=89
2.r
=90
2.r
=91
2.r
=92
4.a[
16a]
16dd
4ff#
=93
2ff#
4ee
=94
2dd
4cc#
=95
4dd
4ee
4r
=96
2.ee
=97
4ff
4ff#
4r
=98
2.a
=99
8cc#
8b
4a
4r
=100
4r
2cc#
=101
4ff#[
2ff#]
=102
4ee
2dd
=103
4cc#
4b
4r
=104
4r
4f#
4ff#[
=105
2ff#]
4ff#
=106
2gg
4ff#
=107
4ee
4dd
4r
=108
4.aa[
16aa]
16ddd
4fff#
=109
2fff#
4eee
=110
2ddd
4ccc#
=111
4ddd
4eee
4r
=112
2.eee
=113
4fff
4fff#
4r
=114
2.aa
=115
8ccc#
8bb
4aa
4r
=116
2.cc#
=117
8ee
8dd
4cc#
4r
=118
2.ee
=119
8gg
8ff#
4ee
4r
=120
4r
2ff#[
=121
2ff#]
4gg
=122
4aa
4aa
4cc#[
=123
2cc#]
4cc#
=124
4dd
2ee[
=125
2ee]
4ee
=126
4ff#
4ee
4dd[
=127
2dd]
4ee
=128
4ff#
4ff#
4ee
=129
4r
4ff#
4ee
=130
4r
4aa
4gg#
=131
4r
4bb
4aa
=132
4r
4ccc#
4aa#
=133
4bb
4ccc#
4ddd
=134
4gg#
2bb[
=135
4bb]
4aa
4r
=136
4r
2a[
=137
2a]
8g
8f#
=138
8e
8d
2A[
=139
2A]
8A#
8G##
=140
8A#
8A
2c#[
=141
2c#]
8A#
8A
=142
8c#
8A
2d[
=143
2d]
8d
8f#
=144
8a
8dd
4r
4cc#
=145
4dd
4r
4cc
=146
4cc#
4r
4cc#
=147
4dd
4r
4dd#
=148
4ee
8ff#
8dd
8b
8f#
=149
4d
8b
8g#
8e
8d
=150
8c#
8d
8c#
8d
8e
8d
=151
8c#
8d
4c#
4aa
=152
4aa
4aa
4dd#[
=153
2dd#]
4ee
=154
4ff#
4ff#
4ee[
=155
2ee]
4ff#
=156
4gg
4gg
4cc#[
=157
2cc#]
4dd
=158
4ee
4ee
4dd[
=159
2dd]
4ee
=160
4ff#
4aa
4gg
=161
4r
4gg
4ff#
=162
4r
4aa#
4bb
=163
4r
4ccc#
4ddd
=164
4r
4aa#
4bb
=165
4ee
4ff#
4gg
=166
4cc#
2ee[
=167
4ee]
4dd
4r
=168
4r
2f#[
=169
4f#]
2cc[
=170
4cc]
2b[
=171
4.b]
8a
8g
8f#
=172
8e
8d
2c#[
=173
4c#]
2a#[
=174
4a#]
2a[
=175
2a]
8g
8f#
=176
8e
8d
4d
4cc#
=177
4dd
4r
4cc#
=178
4dd
4r
4cc#
=179
4dd
4r
4cc#
=180
4dd
4r
8a#
8b
=181
8cc#
8b
8a
8g
8f#
8e
=182
8a
8g
8f#
8g
8a
8g
=183
8f#
8g
4f#
4r
=184
4.a[
16a]
16dd
4ff
=185
2ff
4ee
=186
2dd
4cc#
=187
4dd
4ee
4r
=188
2.r
=189
2.r
=190
2.r
=191
2.r
=192
2.r
=193
2.r
=194
4.cc[
16cc]
16ff
4aa
=195
2aa
4gg
=196
2ff
4ee
=197
4ff
4gg
4r
=198
2.r
=199
2.r
=200
2.r
=201
2.r
=202
2.r
=203
2.r
=204
2.r
=205
2.r
=206
2.cc#
=207
8ee
8dd#
2cc#
=208
8ee
8dd#
2cc#
=209
8ee
8dd#
4cc#
4ee
=210
4ee
4ee
4cc#
=211
4cc#
4b
4dd
=212
4dd
4dd
4b
=213
4b
4a
4cc
=214
4cc
4cc
4a
=215
4a
4b
4a
=216
4a
4g#
4r
=217
2.r
=218
2.r
=219
2.r
=220
4r
12bb
12gg#
12ee
12dd
12b
12g#
=221
4d
4d
4d
=222
4d
4d
4r
=223
2.r
=224
4r
12bb
12gg#
12ee
12dd
12b
12g#
=225
4d
4d
4d
=226
4d
4d
4r
=227
2.r
=228
4r
12bb
12gg#
12ee
12dd
12b
12g#
=229
4d
4d
4d
=230
4d
4c#
4r
=231
2.r
=232
2.r
=233
2.r
=234
2.r
=235
2.r
=236
2.r
=237
2.r
=238
4.a[
16a]
16dd
4ff#
=239
2ff#
4ee
=240
2dd
4cc#
=241
4dd
4ee
4r
=242
2.ee
=243
4ff
4ff#
4r
=244
2.a
=245
8cc#
8b
4a
4r
=246
4r
2cc#
=247
4ff#[
2ff#]
=248
4ee
2dd
=249
4cc#
4b
4r
=250
4r
4f#
4ff#[
=251
2ff#]
4ff#
=252
2gg
4ff#
=253
4ee
4dd
4r
=254
4.aa[
16aa]
16ddd
4fff#
=255
2fff#
4eee
=256
2ddd
4ccc#
=257
4ddd
4eee
4r
=258
2.eee
=259
4fff
4fff#
4r
=260
2.aa
=261
8ccc#
8bb
4aa
4r
=262
2.r
=263
4r
4r
8b
8dd
=264
4ee
4r
8a
8cc#
=265
4ee
4r
8g#
8b
=266
4ee
12e
12a
12cc#
12ee
12aa
12ccc#
=267
4eee
4eee
4ddd
=268
4bb
4ccc
4ccc#
=269
4aa
4aa#
4bb
=270
4ee
4r
4r
=271
2.r
=272
2.r
=273
2.r
=274
4r
12e
12a
12cc
12ee
12aa
12ccc
=275
4eee
4eee
4ddd
=276
4bb
4bb
4ccc
=277
4aa
4aa#
4bb
=278
4ee
4r
4r
=279
2.r
=280
4r
4bb
4ccc
=281
4aa
4aa#
4bb
=282
4ee
4bb
4ccc
=283
4ccc
2ccc[
=284
4ccc]
2ddd
=285
4ddd
2gg[
=286
8.gg]
32r
32ddd
4ccc
4bb
=287
4ccc
2ddd[
=288
4ddd]
2ggg[
=289
4ggg]
4eee
4r
=290
4r
4g#
4a
=291
4a
2a[
=292
4a]
2b
=293
4b
2e[
=294
8.e]
32r
32b
4a
4g#
=295
4a
2b[
=296
4b]
2ee
=297
4aa[
2aa]
=298
4gg
2ff#
=299
4dd
4cc
4cc#
=300
4cc#
4a#
4b
=301
4g#
4r
4r
=302
4r
12f#
12a
12dd
12ff#
12aa
12ddd
=303
4fff#
2fff#
=304
4ddd
4ddd
4ccc#
=305
4gg#
4aa
4r
=306
4r
12f#
12a
12cc#
12ff#
12aa
12ccc#
=307
4fff#
2fff#
=308
4ddd
4r
4r
=309
2.ff#
=310
4dd
4r
4r
=311
2.f#
=312
4d
4r
4r
=313
2.r
=314
2.r
=315
2.r
=316
2.r
=317
4r
2aa
=318
2.aa
=319
2.aa
=320
2.aa
=321
4aa#[
2aa#]
=322
4bb
2ccc
=323
4ccc#
2ddd
=324
4ddd#
2eee
=325
4fff
4fff#
4r
=326
2.r
=327
2.r
=328
2.r
=329
4.e[
16e]
16a
4cc#
=330
2cc#
4b
=331
4a
2g#[
=332
2.g#]
=333
4.e[
16e]
16a
4cc#
=334
2cc#
4b
=335
4a
2g#[
=336
2.g#]
=337
4.ee[
16ee]
16aa
4ccc#
=338
2ccc#
4bb
=339
4aa
2gg#
=340
2.gg#[
=341
4gg#]
4aa
4r
=342
2.r
=343
4r
4ee
4eee
=344
4cc#
4ccc#
4a
=345
4aa
4e
4ee
=346
4c#
4cc#
4A
=347
4a
4f#
4r
=348
4r
4g#
4r
=349
4r
4a
4r
=350
2.r
=351
2.r
==
*-
